X:082
T:Italian Morpheana TS.082
T:Italian Monferina,aka TS.082
T:Monferina,aka TS.082
M:6/8
L:1/8
Q:3/8=120
S:Thomas Sands’ MS,1810,Lincolnshire
R:jig
N:Bar 8 has a cross drawn through it in MS.
O:England;Lincolnshire
Z:vmp.Ruairidh Greig, 2011
K:G
D|GAB BcA|BGGG2[gd]|[g2d2]G FGA|BGGG2:|
|:g|fga afd|Bcdd2 g|fga afd|Bcdd2f|
gdg gdg|ece efg|ded cBA|GGGG2:|]

